symbols/web/signal_wifi_0_bar/materialsymbolsrounded/signal_wifi_0_bar_wght200gradN25_48px.svg

<svg xmlns="http://www.w3.org/2000/svg" height="48" width="48"><path d="M24 38.5q-.3 0-.525-.1-.225-.1-.425-.3L3.85 18.9q-.35-.35-.325-.875.025-.525.425-.875 4.25-3.45 9.35-5.275Q18.4 10.05 24 10.05q5.55 0 10.675 1.825Q39.8 13.7 44.1 17.15q.35.35.375.875.025.525-.325.925L24.95 38.1q-.2.2-.425.3-.225.1-.525.1Zm0-1.45L42.8 18.2q-4.1-3.15-8.85-4.9-4.75-1.75-9.95-1.75-5.15 0-9.925 1.75T5.2 18.2Z"/></svg>

<svg xmlns="http://www.w3.org/2000/svg" height="48" width="48"><path d="M24 38.5Q23.7 38.5 23.475 38.4Q23.25 38.3 23.05 38.1L3.85 18.9Q3.5 18.55 3.525 18.025Q3.55 17.5 3.95 17.15Q8.2 13.7 13.3 11.875Q18.4 10.05 24 10.05Q29.55 10.05 34.675 11.875Q39.8 13.7 44.1 17.15Q44.45 17.5 44.475 18.025Q44.5 18.55 44.15 18.95L24.95 38.1Q24.75 38.3 24.525 38.4Q24.3 38.5 24 38.5ZM24 37.05 42.8 18.2Q38.7 15.05 33.95 13.3Q29.2 11.55 24 11.55Q18.85 11.55 14.075 13.3Q9.3 15.05 5.2 18.2Z"/></svg>
